X:7
T:The Mid Watch
N:page 12 on manuscript
M:C|
L:1/8
K:C
c>Gc>d c2 de/f/ e2 Td>c c2 z e | c2 A>G G2 g2 | c>de>f {e}d2 G2 | c>Bc>d c2 c2 | a2 g>f e3 e |
d2 c2 B>cd>e | B2 TA>G  G2 z G | d>ed>e d2 G2 | e>fe>f e2 d>e | ff(fe) a2 g2 | A2 f>e {e}d2 d2 |
g>^fg>a b2 Ta>g | g2 g>b c'>ef>g | a4 z2 de | f(g/a/)gf e2 Td>c |1 c2 :|2 c4 z4 ||

